X: 06056
T: MIKI'S JIG
C: Bob McQuillen 9 May 82
B: Bob's Note Book 6 #56
%R: jig
Z: 2021 John Chambers <jc:trillian.mit.edu>
M: 6/8
L: 1/8
K: D
ag \
| fdf ece | dfd AFD | BGB Afd | cde eag |\
| fdf ecA | dfd AFA | Bge fag | fdd d :|
|: fg \
| afd Bge | faf dBd | ABA AFA | Bcd efg |\
| afd Bge | faf dBA | ded BAf | edd d :|
%%begintext align
%% Miki McCloskey
%% from Farmington, Ct., has long been one of my
%% favorite musicians - She plays great piano
%% for Tim Woodbridge, and I just love the way
%% she plays bass _ Best always to you, Miki!
%%endtext

%%sep 1 1 500

%%sep 1 1 500

